build/images/icons/article/edit.svg

<svg width="21" height="21" viewBox="0 0 21 21" fill="none" xmlns="http://www.w3.org/2000/svg">
<path d="M14.5848 2.41421C15.3659 1.63316 16.6322 1.63317 17.4132 2.41421L18.5846 3.58558C19.3656 4.36663 19.3657 5.63296 18.5846 6.41401L9.58915 15.4095C9.41957 15.579 9.22087 15.7167 9.00254 15.816L4.42739 17.8956C3.58622 18.2779 2.72087 17.4126 3.10323 16.5714L5.18284 11.9963C5.28208 11.7779 5.41978 11.5792 5.58936 11.4097L14.5848 2.41421Z" stroke="#6F7075"/>
<line x1="3.71973" y1="20.5" x2="19.6894" y2="20.5" stroke="#6F7075" stroke-linecap="round"/>
</svg>

<svg width="21" height="21" fill="none" xmlns="http://www.w3.org/2000/svg"><path d="M14.585 2.414a2 2 0 012.828 0l1.172 1.172a2 2 0 010 2.828l-8.996 8.995c-.17.17-.368.308-.586.407l-4.576 2.08c-.84.382-1.706-.483-1.324-1.325l2.08-4.575c.1-.218.237-.417.406-.586l8.996-8.996z" stroke="#6F7075"/><path stroke="#6F7075" stroke-linecap="round" d="M3.72 20.5h15.969"/></svg>
